src/assets/icons/right.svg

<svg width="22" height="22" viewBox="0 0 22 22" fill="none" xmlns="http://www.w3.org/2000/svg">
<circle cx="11" cy="11" r="10" stroke="white" stroke-width="2"/>
<path d="M14.3536 11.3536C14.5488 11.1583 14.5488 10.8417 14.3536 10.6464L11.1716 7.46447C10.9763 7.2692 10.6597 7.2692 10.4645 7.46447C10.2692 7.65973 10.2692 7.97631 10.4645 8.17157L13.2929 11L10.4645 13.8284C10.2692 14.0237 10.2692 14.3403 10.4645 14.5355C10.6597 14.7308 10.9763 14.7308 11.1716 14.5355L14.3536 11.3536ZM7 11.5L14 11.5V10.5L7 10.5V11.5Z" fill="white"/>
</svg>

<svg xmlns="http://www.w3.org/2000/svg" width="22" height="22" fill="none"><circle cx="11" cy="11" r="10" stroke="#fff" stroke-width="2"/><path fill="#fff" d="M14.35 11.35c.2-.2.2-.5 0-.7l-3.18-3.2c-.2-.18-.5-.18-.7 0-.2.2-.2.53 0 .72L13.28 11l-2.84 2.83c-.2.2-.2.5 0 .7.2.2.52.2.7 0l3.2-3.18zM7 11.5h7v-1H7v1z"/></svg>
